logo/unbounce-icon.svg

<?xml version="1.0" encoding="UTF-8"?>
<svg width="256px" height="256px" viewBox="0 0 256 256" version="1.1" xmlns="http://www.w3.org/2000/svg" xmlns:xlink="http://www.w3.org/1999/xlink" preserveAspectRatio="xMidYMid">
    <g>
        <path d="M128,0 C198.736842,0 256,57.2631579 256,128 C256,198.736842 198.736842,256 128,256 C57.2631579,256 0,198.736842 0,128 C0,57.2631579 57.2631579,0 128,0 Z M157.834586,42.3458647 C152.541353,40.6616541 146.766917,42.8270677 143.879699,47.3984962 C138.827068,46.4360902 133.774436,45.9548872 128.481203,45.9548872 C83.0075188,45.9548872 46.4360902,82.7669173 46.4360902,128 C46.4360902,159.759398 64.481203,187.428571 90.9473684,200.902256 C90.2255639,206.195489 93.593985,211.488722 98.887218,213.413534 C100.090226,213.894737 101.533835,214.135338 102.736842,214.135338 C104.661654,214.135338 106.586466,213.654135 108.270677,212.691729 C110.195489,211.729323 111.639098,210.285714 112.842105,208.360902 C113.323308,207.639098 113.804511,206.917293 114.045113,205.954887 L114.045113,205.954887 L123.428571,178.285714 L156.150376,85.1729323 L165.533835,57.5037594 C165.774436,56.7819549 166.015038,55.8195489 166.015038,54.8571429 C166.255639,52.2105263 165.533835,49.8045113 164.330827,47.6390977 C162.887218,45.2330827 160.721805,43.3082707 157.834586,42.3458647 Z M181.172932,65.6842105 L169.864662,99.8496241 C175.398496,107.789474 178.526316,117.654135 178.526316,128 C178.526316,150.135338 164.571429,168.661654 145.082707,175.639098 L145.082707,175.639098 L133.774436,209.804511 C176.360902,206.676692 209.804511,171.308271 210.045113,128 C210.045113,102.977444 198.736842,80.6015038 181.172932,65.6842105 L181.172932,65.6842105 Z M128,77.4736842 C129.443609,77.4736842 131.12782,77.4736842 132.571429,77.7142857 L132.571429,77.7142857 L100.81203,170.586466 C86.8571429,161.443609 77.4736842,145.804511 77.4736842,128 C77.4736842,100.090226 100.090226,77.4736842 128,77.4736842 Z" fill="#303030"></path>
    </g>
</svg>

<svg viewBox="0 0 256 256" xmlns="http://www.w3.org/2000/svg"><path fill="#303030" d="M128 0c70.73 0 128 57.26 128 128 0 70.73-57.27 128-128 128C57.26 256 0 198.73 0 128 0 57.26 57.26 0 128 0Zm29.83 42.34c-5.3-1.69-11.07.48-13.96 5.05 -5.06-.97-10.11-1.45-15.4-1.45 -45.48 0-82.05 36.81-82.05 82.04 0 31.75 18.04 59.42 44.51 72.9 -.73 5.29 2.64 10.58 7.93 12.51 1.2.48 2.64.72 3.84.72 1.92 0 3.84-.49 5.53-1.45 1.92-.97 3.36-2.41 4.57-4.34 .48-.73.96-1.45 1.2-2.41v0l9.38-27.67 32.72-93.12 9.38-27.67c.24-.73.48-1.69.48-2.65 .24-2.65-.49-5.06-1.69-7.22 -1.45-2.41-3.61-4.34-6.5-5.3Zm23.33 23.33l-11.31 34.16c5.53 7.93 8.66 17.8 8.66 28.15 0 22.13-13.96 40.66-33.45 47.63v0l-11.31 34.16c42.58-3.13 76.03-38.5 76.27-81.81 0-25.03-11.31-47.4-28.88-62.32v0Zm-53.18 11.78c1.44 0 3.12 0 4.57.24v0l-31.76 92.87c-13.96-9.15-23.34-24.79-23.34-42.59 0-27.91 22.61-50.53 50.52-50.53Z"/></svg>
